X: 5872
T: Calon Lan
R: waltz
M: 3/4
K: Gmajor
DG|B3G AB|G2D2EF|G3E cB|B2A2DG|B3G AB|G2E2GE|D3G GF|G3A BG||
d3B AG|G2F2 AB|c3cBA|B4 DG|E3G FD|G2A2 GA|B3 G (3AGF|G4||

